svgs/thin/voicemail.svg

<svg xmlns="http://www.w3.org/2000/svg" viewBox="0 0 640 512"><!-- Font Awesome Pro 6.0.0-alpha2 by @fontawesome - https://fontawesome.com License - https://fontawesome.com/license (Commercial License) --><path d="M144 160C99.818 160 64 195.816 64 240S99.818 320 144 320C188.184 320 224 284.184 224 240S188.184 160 144 160ZM144 304C108.711 304 80 275.289 80 240S108.711 176 144 176C179.291 176 208 204.711 208 240S179.291 304 144 304ZM496 96C416.594 96 352 160.594 352 240C352 296.07 384.527 344.229 431.414 368H208.586C255.473 344.229 288 296.07 288 240C288 160.594 223.406 96 144 96S0 160.594 0 240S64.594 384 144 384H496C575.406 384 640 319.406 640 240S575.406 96 496 96ZM16 240C16 169.406 73.422 112 144 112S272 169.406 272 240S214.578 368 144 368S16 310.594 16 240ZM496 368C425.422 368 368 310.594 368 240S425.422 112 496 112S624 169.406 624 240S566.578 368 496 368ZM496 160C451.818 160 416 195.816 416 240S451.818 320 496 320C540.184 320 576 284.184 576 240S540.184 160 496 160ZM496 304C460.711 304 432 275.289 432 240S460.711 176 496 176C531.291 176 560 204.711 560 240S531.291 304 496 304Z"/></svg>

<svg xmlns="http://www.w3.org/2000/svg" viewBox="0 0 640 512"><!--! Font Awesome Pro 6.3.0 by @fontawesome - https://fontawesome.com License - https://fontawesome.com/license (Commercial License) Copyright 2023 Fonticons, Inc. --><path d="M143.1 160c-44.18 0-80 35.82-80 80s35.82 79.1 80 79.1c44.18 0 80-35.82 80-79.1S188.2 160 143.1 160zM144 304c-35.29 0-64-28.71-64-64s28.71-64 64-64c35.29 0 64 28.71 64 64S179.3 304 144 304zM495.1 96C416.6 96 352 160.6 352 240c0 56.07 32.53 104.2 79.41 128H208.6C255.5 344.2 288 296.1 288 240C288 160.6 223.4 96 144 96S0 160.6 0 240s64.59 144 143.1 144h352C575.4 384 640 319.4 640 240S575.4 96 495.1 96zM16 240c0-70.59 57.42-128 128-128s128 57.41 128 128s-57.42 128-128 128S16 310.6 16 240zM496 368c-70.58 0-128-57.41-128-128s57.42-128 128-128s128 57.41 128 128S566.6 368 496 368zM495.1 160c-44.18 0-80 35.82-80 80s35.82 79.1 80 79.1c44.18 0 80-35.82 80-79.1S540.2 160 495.1 160zM496 304c-35.29 0-64-28.71-64-64s28.71-64 64-64c35.29 0 64 28.71 64 64S531.3 304 496 304z"/></svg>
